selz-ecommerce/dist/img/svg/icon.svg

<svg xmlns="http://www.w3.org/2000/svg" xmlns:xlink="http://www.w3.org/1999/xlink" width="16" height="16" viewBox="0 0 16 16">
  <defs>
    <linearGradient id="icon-16x16-a" x1="50%" x2="50%" y1="100%" y2="0%">
      <stop offset="0%" stop-color="#703FCE"/>
      <stop offset="100%" stop-color="#813CC1"/>
    </linearGradient>
    <path id="icon-16x16-c" d="M6.89915966,5.99788136 C7.04295123,6.18149809 7.23342552,6.35187068 7.47058824,6.50900424 C7.70775095,6.66613779 7.97665583,6.81532415 8.27731092,6.9565678 C8.57796602,7.09781144 8.88608619,7.24346676 9.20168067,7.39353814 C9.51727515,7.54360951 9.82539532,7.70427174 10.1260504,7.87552966 C10.4267055,8.04678758 10.6956104,8.24011192 10.9327731,8.45550847 C11.1699358,8.67090503 11.3604101,8.91454666 11.5042017,9.18644068 C11.6479932,9.45833469 11.719888,9.76906605 11.719888,10.1186441 C11.719888,10.4364423 11.6657335,10.7286357 11.557423,10.9952331 C11.4491124,11.2618304 11.3006545,11.5010583 11.1120448,11.7129237 C10.9234351,11.9247892 10.7002814,12.1119342 10.442577,12.2743644 C10.1848727,12.4367946 9.90663081,12.570974 9.60784314,12.6769068 C9.30905546,12.7828395 8.99533311,12.8631706 8.66666667,12.9179025 C8.33800022,12.9726345 8.00747132,13 7.67507003,13 C7.20821429,13 6.75443731,12.9461517 6.31372549,12.8384534 C5.87301367,12.7307551 5.48086073,12.5683274 5.1372549,12.3511653 C4.79364908,12.1340032 4.51820832,11.8621132 4.31092437,11.5354873 C4.10364042,11.2088614 4,10.8266265 4,10.3887712 C4,10.1627814 4.0382816,9.96416046 4.11484594,9.79290254 C4.19141028,9.62164462 4.28664742,9.47863758 4.40056022,9.36387712 C4.51447303,9.24911666 4.63865479,9.16260622 4.77310924,9.10434322 C4.9075637,9.04608022 5.03267916,9.01694915 5.14845938,9.01694915 C5.26797445,9.01694915 5.36788008,9.04784574 5.44817927,9.10963983 C5.52847846,9.17143392 5.56862745,9.26765471 5.56862745,9.39830508 C5.56862745,9.45833363 5.56115787,9.52189232 5.54621849,9.58898305 C5.5312791,9.65607378 5.51540625,9.72934282 5.49859944,9.80879237 C5.48179263,9.88824192 5.46591978,9.97563512 5.45098039,10.0709746 C5.43604101,10.166314 5.42857143,10.2704797 5.42857143,10.3834746 C5.42857143,10.630651 5.48832807,10.8442788 5.60784314,11.0243644 C5.72735821,11.2044501 5.88608678,11.3527537 6.08403361,11.4692797 C6.28198045,11.5858057 6.50980263,11.6723161 6.767507,11.7288136 C7.02521137,11.785311 7.29224885,11.8135593 7.56862745,11.8135593 C7.89355905,11.8135593 8.21848577,11.7764834 8.54341737,11.7023305 C8.86834896,11.6281776 9.15966258,11.5187154 9.41736695,11.3739407 C9.67507132,11.2291659 9.88421955,11.0517313 10.0448179,10.8416314 C10.2054163,10.6315314 10.2857143,10.3905381 10.2857143,10.1186441 C10.2857143,9.8679366 10.2138196,9.64371568 10.070028,9.44597458 C9.92623644,9.24823347 9.73576216,9.06550225 9.49859944,8.89777542 C9.26143672,8.7300486 8.99159815,8.57203464 8.68907563,8.42372881 C8.38655311,8.27542299 8.07843294,8.12535387 7.76470588,7.97351695 C7.45097882,7.82168003 7.14285866,7.66190056 6.84033613,7.49417373 C6.53781361,7.3264469 6.26797504,7.14195016 6.03081232,6.94067797 C5.79364961,6.73940577 5.60317532,6.51430209 5.45938375,6.26536017 C5.31559218,6.01641825 5.24369748,5.73305244 5.24369748,5.41525424 C5.24369748,5.11864258 5.31932697,4.82644918 5.47058824,4.53866525 C5.6218495,4.25088133 5.84967168,3.99311555 6.15406162,3.76536017 C6.45845157,3.53760479 6.83846644,3.35310805 7.29411765,3.21186441 C7.74976885,3.07062076 8.28384381,3 8.89635854,3 C9.28478252,3 9.66479739,3.05473109 10.0364146,3.16419492 C10.4080317,3.27365874 10.7394943,3.42902442 11.0308123,3.63029661 C11.3221303,3.8315688 11.5564884,4.0716794 11.7338936,4.35063559 C11.9112987,4.62959179 12,4.93855763 12,5.27754237 C12,5.47881457 11.9635858,5.6853803 11.8907563,5.89724576 C11.8179268,6.10911123 11.7012146,6.32980111 11.5406162,6.55932203 C11.3837527,6.78178077 11.2128861,6.94685681 11.0280112,7.05455508 C10.8431363,7.16225336 10.6760045,7.21610169 10.5266106,7.21610169 C10.4145653,7.21610169 10.3230629,7.18520511 10.2521008,7.12341102 C10.1811388,7.06161692 10.1456583,6.96892717 10.1456583,6.84533898 C10.1456583,6.75353061 10.168067,6.64495119 10.2128852,6.51959746 C10.2577033,6.39424372 10.3342665,6.25035392 10.442577,6.08792373 C10.5434179,5.93255572 10.6181137,5.7869004 10.6666667,5.65095339 C10.7152197,5.51500638 10.7394958,5.38877177 10.7394958,5.27224576 C10.7394958,5.09216012 10.6881424,4.93414616 10.5854342,4.79819915 C10.4827259,4.66225215 10.3408039,4.54837617 10.1596639,4.4565678 C9.97852384,4.36475943 9.76097232,4.29590418 9.5070028,4.25 C9.25303328,4.20409582 8.97479143,4.18114407 8.67226891,4.18114407 C8.33613277,4.18114407 8.04388546,4.21733721 7.79551821,4.28972458 C7.54715095,4.36211194 7.33987011,4.45568445 7.17366947,4.57044492 C7.00746882,4.68520538 6.88422076,4.81320551 6.80392157,4.95444915 C6.72362238,5.0956928 6.68347339,5.2351688 6.68347339,5.37288136 C6.68347339,5.60593337 6.7553681,5.81426462 6.89915966,5.99788136 Z"/>
    <filter id="icon-16x16-b" width="150%" height="140%" x="-25%" filterUnits="objectBoundingBox">
      <feOffset dy="1" in="SourceAlpha" result="shadowOffsetOuter1"/>
      <feGaussianBlur in="shadowOffsetOuter1" result="shadowBlurOuter1" stdDeviation=".5"/>
      <feColorMatrix in="shadowBlurOuter1" values="0 0 0 0 0   0 0 0 0 0   0 0 0 0 0  0 0 0 0.246376812 0"/>
    </filter>
  </defs>
  <g fill="none" fill-rule="evenodd">
    <rect width="16" height="16" fill="url(#icon-16x16-a)" rx="2"/>
    <use fill="#000" filter="url(#icon-16x16-b)" xlink:href="#icon-16x16-c"/>
    <use fill="#FFF" xlink:href="#icon-16x16-c"/>
  </g>
</svg>

<svg xmlns="http://www.w3.org/2000/svg" xmlns:xlink="http://www.w3.org/1999/xlink" width="16" height="16" viewBox="0 0 16 16"><defs><linearGradient id="icon-16x16-a" x1="50%" x2="50%" y1="100%" y2="0%"><stop offset="0%" stop-color="#703FCE"/><stop offset="100%" stop-color="#813CC1"/></linearGradient><path id="icon-16x16-c" d="M6.9 5.998c.143.183.333.354.57.511.238.157.507.306.807.448.301.14.61.286.925.437.315.15.623.31.924.482.3.17.57.364.807.58.237.215.427.459.571.73.144.272.216.583.216.933 0 .317-.054.61-.163.876a2.468 2.468 0 0 1-.445.718 3.107 3.107 0 0 1-.67.561 4.177 4.177 0 0 1-.834.403 5.528 5.528 0 0 1-.941.24 5.903 5.903 0 0 1-2.353-.079 3.931 3.931 0 0 1-1.177-.487 2.62 2.62 0 0 1-.826-.816A2.094 2.094 0 0 1 4 10.39a1.429 1.429 0 0 1 .4-1.025c.114-.115.239-.201.373-.26a.95.95 0 0 1 .375-.087c.12 0 .22.03.3.093.08.061.12.158.12.288 0 .06-.007.124-.022.191l-.047.22c-.017.08-.033.167-.048.262s-.022.2-.022.312c0 .248.06.461.179.641.12.18.278.329.476.445.198.117.426.203.684.26.257.056.524.085.8.085.326 0 .65-.038.975-.112a3.25 3.25 0 0 0 .874-.328 2.03 2.03 0 0 0 .628-.532c.16-.21.24-.451.24-.723 0-.251-.071-.475-.215-.673a2.434 2.434 0 0 0-.571-.548 5.893 5.893 0 0 0-.81-.474c-.302-.149-.61-.299-.924-.45a18.764 18.764 0 0 1-.925-.48 4.972 4.972 0 0 1-.81-.553 2.574 2.574 0 0 1-.57-.676 1.669 1.669 0 0 1-.216-.85c0-.296.075-.589.227-.876.15-.288.379-.546.683-.774a3.735 3.735 0 0 1 1.14-.553C7.75 3.07 8.284 3 8.896 3c.389 0 .769.055 1.14.164.372.11.703.265.995.466.291.202.525.442.703.72.177.28.266.589.266.928a1.9 1.9 0 0 1-.11.62 2.66 2.66 0 0 1-.35.661 1.673 1.673 0 0 1-.512.496c-.185.107-.352.161-.501.161a.403.403 0 0 1-.275-.093c-.07-.061-.106-.154-.106-.278 0-.091.022-.2.067-.325.045-.126.121-.27.23-.432.1-.155.175-.301.224-.437.048-.136.072-.262.072-.379a.765.765 0 0 0-.154-.474 1.203 1.203 0 0 0-.425-.341 2.38 2.38 0 0 0-.653-.207 4.703 4.703 0 0 0-.835-.069 3.15 3.15 0 0 0-.876.109 2.148 2.148 0 0 0-.622.28c-.167.115-.29.243-.37.384a.842.842 0 0 0-.12.419c0 .233.071.441.215.625z"/><filter id="icon-16x16-b" width="150%" height="140%" x="-25%" filterUnits="objectBoundingBox"><feOffset dy="1" in="SourceAlpha" result="shadowOffsetOuter1"/><feGaussianBlur in="shadowOffsetOuter1" result="shadowBlurOuter1" stdDeviation=".5"/><feColorMatrix in="shadowBlurOuter1" values="0 0 0 0 0 0 0 0 0 0 0 0 0 0 0 0 0 0 0.246376812 0"/></filter></defs><g fill="none" fill-rule="evenodd"><rect width="16" height="16" fill="url(#icon-16x16-a)" rx="2"/><use fill="#000" filter="url(#icon-16x16-b)" xlink:href="#icon-16x16-c"/><use fill="#FFF" xlink:href="#icon-16x16-c"/></g></svg>
